src/ui/assets/music-colorful.svg

<svg width="480" height="480" xmlns="http://www.w3.org/2000/svg">
    <defs>
        <linearGradient x1="50%" y1="0%" x2="50%" y2="100%" id="a">
            <stop stop-color="#FFF" stop-opacity=".201" offset="0%"/>
            <stop stop-color="#FFF" offset="100%"/>
        </linearGradient>
    </defs>
    <g fill="none" fill-rule="evenodd">
        <path d="M232.693763,400.559363 C109.03716,390.360796 9.67031405,308.156531 15.8596422,208.074603 C21.1626035,120.235551 101.248362,0.817703757 222.942592,0.0051538664 C344.636823,-0.807396024 434.310586,94.5690471 439.776713,208.074603 C437.836661,323.800736 323.468312,420.020179 232.693763,400.559363 Z"
              fill="#9F8FF8" opacity=".2" transform="translate(20 32)"/>
        <path d="M194.81717,416.501798 C91.089117,404.06859 2.86852406,295.90001 2.84217094e-14,224.149808 C2.84217094e-14,134.19325 87.2226181,54.9832899 194.81717,47.2294105 C302.411722,39.475531 378.733816,127.566065 389.63434,239.5814 C391.935602,325.148541 299.516641,421.125931 194.81717,416.501798 Z"
              fill="#AB9CF9" opacity=".3" transform="translate(20 32)"/>
        <path d="M208.672378,379.531199 C48.5870777,361.81091 21.7359943,237.760785 15.6006878,189.03303 C14.3971304,99.0376285 84.2143627,13.0711517 197.012964,13.0711517 C304.684553,9.63125078 421.438951,112.574495 413.872849,207.787717 C414.347738,308.670009 330.361359,400.558086 208.672378,379.531199 Z"
              fill="#9F8FF8" opacity=".4" transform="translate(20 32)"/>
        <path d="M193.877789,375.566084 C77.33862,363.242966 27.3452345,259.391277 18.7017539,207.80755 C23.8086508,120.567508 73.7558925,50.8936048 202.609857,45.8052204 C273.485532,45.1061226 362.539546,87.335627 386.517944,207.80755 C387.704333,369.785194 302.621972,397.272439 193.877789,375.566084 Z"
              fill="#9F8FF8" opacity=".4" transform="translate(20 32)"/>
        <path d="M196.135236,336.566817 C36.6368907,363.573036 46.8037569,254.7908 46.9226766,186.641198 C59.7113423,107.546896 111.463305,50.4482293 203.927923,28.9232336 C306.805166,23.4899772 384.236286,81.3060102 371.323418,186.641198 C369.62936,259.554569 299.774993,322.688192 196.135236,336.566817 Z"
              fill="#9F8FF8" opacity=".6" transform="translate(20 32)"/>
        <path d="M220,122 C273.571621,122 317,165.712254 317,219.634053 L316.999,219.82 L316.813879,219.819882 C316.935788,220.381686 317,220.965004 317,221.563319 L317,239.816872 C317,244.336289 313.336289,248 308.816872,248 C304.297456,248 300.633745,244.336289 300.633745,239.816872 L300.633745,221.563319 C300.633745,220.965004 300.697957,220.381686 300.819866,219.819882 L300.678568,219.820484 L300.678776,219.634053 C300.678776,174.785138 264.557658,138.427909 220,138.427909 C175.442342,138.427909 139.321224,174.785138 139.321224,219.634053 L139.323,219.82 L139.180134,219.819882 C139.302043,220.381686 139.366255,220.965004 139.366255,221.563319 L139.366255,239.816872 C139.366255,244.336289 135.702544,248 131.183128,248 C126.663711,248 123,244.336289 123,239.816872 L123,221.563319 C123,220.965004 123.064212,220.381686 123.186121,219.819882 L123.000173,219.820433 L123,219.634053 C123,165.712254 166.428379,122 220,122 Z"
              fill="#FFF" transform="translate(20 32)"/>
        <path d="M132.315217,215 C145.191856,215 155.630435,225.438578 155.630435,238.315217 L155.630435,258.684783 C155.630435,271.561422 145.191856,282 132.315217,282 C119.438578,282 109,271.561422 109,258.684783 L109,238.315217 C109,225.438578 119.438578,215 132.315217,215 Z M305.684783,215 C318.561422,215 329,225.438578 329,238.315217 L329,258.684783 C329,271.561422 318.561422,282 305.684783,282 C292.808144,282 282.369565,271.561422 282.369565,258.684783 L282.369565,238.315217 C282.369565,225.438578 292.808144,215 305.684783,215 Z"
              fill="url(#a)" transform="translate(20 32)"/>
    </g>
</svg>

<svg width="48" height="48" xmlns="http://www.w3.org/2000/svg"><defs><linearGradient x1="120.857" y1="389.594" x2="120.857" y2="511.003" id="a" gradientTransform="scale(1.81207 .55186)" gradientUnits="userSpaceOnUse"><stop stop-color="#FFF" stop-opacity=".201" offset="0%"/><stop stop-color="#FFF" offset="100%"/></linearGradient></defs><g fill="none" fill-rule="evenodd"><path d="M 232.69376,400.55936 C 109.03716,390.3608 9.6703141,308.15653 15.859642,208.0746 21.162603,120.23555 101.24836,0.81770376 222.94259,0.00515387 344.63682,-0.80739602 434.31059,94.569047 439.77671,208.0746 437.83666,323.80074 323.46831,420.02018 232.69376,400.55936 Z" fill="#9f8ff8" opacity=".2" transform="matrix(.1 0 0 .1 2 3.2)"/><path d="M 194.81717,416.5018 C 91.089117,404.06859 2.8685241,295.90001 0,224.14981 0,134.19325 87.222618,54.98329 194.81717,47.22941 c 107.59455,-7.753879 183.91665,80.33665 194.81717,192.35199 2.30126,85.56714 -90.1177,181.54453 -194.81717,176.9204 z" fill="#ab9cf9" opacity=".3" transform="matrix(.1 0 0 .1 2 3.2)"/><path d="M 208.67238,379.5312 C 48.587078,361.81091 21.735994,237.76078 15.600688,189.03303 14.39713,99.037628 84.214363,13.071152 197.01296,13.071152 304.68455,9.6312508 421.43895,112.5745 413.87285,207.78772 414.34774,308.67001 330.36136,400.55809 208.67238,379.5312 Z" fill="#9f8ff8" opacity=".4" transform="matrix(.1 0 0 .1 2 3.2)"/><path d="M 193.87779,375.56608 C 77.33862,363.24297 27.345234,259.39128 18.701754,207.80755 23.808651,120.56751 73.755893,50.893605 202.60986,45.80522 c 70.87567,-0.699097 159.92969,41.530407 183.90808,162.00233 1.18639,161.97764 -83.89597,189.46489 -192.64015,167.75853 z" fill="#9f8ff8" opacity=".4" transform="matrix(.1 0 0 .1 2 3.2)"/><path d="M 196.13524,336.56682 C 36.636891,363.57304 46.803757,254.7908 46.922677,186.6412 59.711342,107.5469 111.46331,50.448229 203.92792,28.923234 306.80517,23.489977 384.23629,81.30601 371.32342,186.6412 369.62936,259.55457 299.77499,322.68819 196.13524,336.56682 Z" fill="#9f8ff8" opacity=".6" transform="matrix(.1 0 0 .1 2 3.2)"/><path d="m 220,122 c 53.57162,0 97,43.71225 97,97.63405 l -10e-4,0.18595 -0.18512,-1.2e-4 C 316.93579,220.38169 317,220.965 317,221.56332 v 18.25355 c 0,4.51942 -3.66371,8.18313 -8.18313,8.18313 -4.51941,0 -8.18313,-3.66371 -8.18313,-8.18313 v -18.25355 c 0,-0.59832 0.0642,-1.18163 0.18613,-1.74344 l -0.1413,6e-4 2.1e-4,-0.18643 c 0,-44.84891 -36.12112,-81.20614 -80.67878,-81.20614 -44.55766,0 -80.67878,36.35723 -80.67878,81.20614 l 0.002,0.18595 -0.14287,-1.2e-4 c 0.12191,0.56181 0.18612,1.14512 0.18612,1.74344 v 18.25355 c 0,4.51942 -3.66371,8.18313 -8.18312,8.18313 C 126.66371,248 123,244.33629 123,239.81687 v -18.25355 c 0,-0.59832 0.0642,-1.18163 0.18612,-1.74344 l -0.18595,5.5e-4 L 123,219.63405 C 123,165.71225 166.42838,122 220,122 Z" fill="#fff" transform="matrix(.1 0 0 .1 2 3.2)"/><path d="m 132.31522,215 c 12.87664,0 23.31521,10.43858 23.31521,23.31522 v 20.36956 C 155.63043,271.56142 145.19186,282 132.31522,282 119.43858,282 109,271.56142 109,258.68478 V 238.31522 C 109,225.43858 119.43858,215 132.31522,215 Z m 173.36956,0 C 318.56142,215 329,225.43858 329,238.31522 v 20.36956 C 329,271.56142 318.56142,282 305.68478,282 292.80814,282 282.36957,271.56142 282.36957,258.68478 V 238.31522 C 282.36957,225.43858 292.80814,215 305.68478,215 Z" fill="url(#a)" transform="matrix(.1 0 0 .1 2 3.2)"/></g></svg>
